X:490
T:
R:vals
S:Efter f. d. hemmansägaren Gardell, Rodarve i Fardhem.
O:Gotland, Fardhem
M:3/4
L:1/8
K:C
G2|G2 E2 G2|c2 e2 c2|Bcdefd|c2 e2 g2|a2 f2 d2|g2 e2 c2|Bcdefd|c4::
Bc|d2 defg|a2 g^f g2|fefdcB|d2 cA G2|Bcdefg|a2 g^f g2|fefdcB|c4:|

